TV/Source/Life TV HD.svg

<svg height="2.550231mm" viewBox="0 0 5.9522014 2.5502305" width="5.952201mm" xmlns="http://www.w3.org/2000/svg" xmlns:xlink="http://www.w3.org/1999/xlink"><clipPath id="a"><path d="m226.254 476.433h16.945v7.229h-16.945z"/></clipPath><g clip-path="url(#a)" fill="#fff" transform="matrix(.35277777 0 0 -.35277777 -79.842999 170.625202)"><g transform="translate(235.0052 481.143)"><path d="m0 0c .176-.075.202-.305.06-.553-.066-.115-.382-.429-.607-.607l-.121-.095-.017.089c-.055.274.017.694.158.941.138.242.311.314.527.225m-1.235 1.952c-.003-.228-.282-.78-.8-1.575-.141-.219-.262-.391-.271-.386-.006.006.04.213.104.455.21.818.408 1.293.636 1.529.118.124.15.141.233.132.098-.008.098-.008.098-.155m6.52.432c-1.404-.081-1.891-.101-2.749-.118-.993-.018-1.598.008-2.024.08-.1.017-.19.023-.198.015-.035-.035.262-.308.437-.406.314-.179.781-.251 1.837-.291.279-.012.51-.032.51-.043 0-.012-.116-.662-.26-1.443-.244-1.358-.489-2.726-.489-2.757 0-.015-5.098-.006-5.113.008-.008.009.291 1.799.334 1.995.023.113.049.156.104.182.118.051.181.037.4-.095.351-.213.481-.219.639-.023.072.083.089.054.023-.035-.023-.029-.069-.138-.103-.242-.167-.504.06-1.042.495-1.169.253-.074.478-.046.869.113.343.138.97.567.97.662 0 .075-.066.049-.23-.087-.276-.227-.685-.417-.898-.417-.144.003-.331.098-.398.207l-.057.095.21.187c.455.406.639.642.688.873.075.357-.201.561-.651.478-.204-.038-.331-.095-.529-.254-.081-.066-.156-.103-.164-.089-.012.02-.038.02-.072 0-.043-.023-.101-.006-.259.075-.113.055-.274.115-.357.132-.136.029-.167.026-.274-.026-.063-.031-.118-.054-.118-.046 0 .006.089.144.196.305.57.853.898 1.512.898 1.803 0 .175-.075.244-.256.239-.443-.009-.91-.484-1.261-1.279-.294-.668-.472-1.252-.714-2.346-.017-.075-.25-.222-.426-.27-.302-.084-.334.094-.179 1.016.11.63.095.771-.077.771-.19 0-.351-.167-.815-.849-.141-.204-.305-.435-.368-.51-.11-.132-.13-.241-.038-.207.023.009.176.196.337.418.161.221.299.394.305.388.009-.006-.009-.115-.034-.239-.026-.123-.055-.357-.064-.515-.014-.265-.011-.308.049-.429.089-.184.17-.23.403-.227.213 0 .446.095.703.279.08.057.146.101.149.098.006-.003-.003-.058-.017-.121s-.046-.279-.075-.478l-.049-.363-1.312-.017c-.72-.009-1.316-.014-1.319-.012-.009.009.337 2.626.452 3.418.049.339.121.765.158.947.041.181.064.337.058.345-.023.023-.161-.121-.233-.245-.274-.463-.518-1.554-.832-3.696-.058-.389-.11-.731-.115-.763-.012-.054-.046-.063-.498-.095-.648-.049-1.184-.129-1.322-.198-.221-.116-.314-.389-.175-.522.158-.143.316-.152 1.214-.048.349.037.64.063.648.057.006-.009-.029-.296-.078-.639-.097-.662-.097-.671.044-.671.144 0 .305.349.454.979.044.181.081.346.087.36.011.046 1.779.184 2.378.187.325 0 .337-.003.354-.066.008-.035.017-.092.017-.13 0-.075.086-.118.193-.098.072.015.222.144.296.257l.044.063 1.468.029c.809.017 1.986.04 2.617.049l1.148.02-.02-.112c-.066-.392-.083-.674-.049-.786.035-.121.087-.15.144-.078.02.023.055.181.078.354.043.337.092.616.109.633.006.009 1.086.015 2.401.018 1.316.002 2.384.014 2.378.026-.017.028-.348.132-.579.181-.5.104-1.571.173-3.137.204-.893.018-.988.026-.988.069 0 .049.225 1.362.533 3.115.103.582.187 1.062.187 1.068 0 .003.406.009.901.012.864.006 1.471.04 1.612.092.098.037.245.201.265.294.057.264-.228.385-.821.354" fill="#fff" fill-rule="evenodd"/></g><g transform="translate(230.9921 482.3377)"><path d="m0 0c-.141-.075-.23-.216-.23-.366 0-.429.639-.374.711.061.023.138-.035.262-.15.314-.124.06-.21.057-.331-.009" fill="#fff" fill-rule="evenodd"/></g><g transform="translate(239.7868 481.3704)"><path d="m0 0c-.003-.118-.026-.184-.115-.34-.104-.178-.115-.19-.141-.129-.015.037-.026.164-.029.285-.003.262.049.351.196.337.086-.009.089-.012.089-.153m-.273.248c-.222-.07-.337-.176-.444-.406-.161-.354-.144-1.132.032-1.483.115-.23.325-.34.507-.262.273.112.831.901 1.301 1.831.115.23.121.259.046.259-.041 0-.107-.086-.233-.308-.616-1.065-.732-1.235-.815-1.203-.058.023-.268.434-.297.575-.014.078 0 .121.072.228.199.288.306.599.239.697-.057.089-.244.121-.408.072" fill="#fff" fill-rule="evenodd"/></g><g transform="translate(236.528 480.406)"><path d="m0 0c-.109-.066-.173-.158-.199-.276-.026-.13.101-.271.242-.271.133 0 .277.086.337.199.141.276-.115.512-.38.348" fill="#fff" fill-rule="evenodd"/></g><g transform="translate(241.7042 483.6551)"><path d="m0 0v-.327h.288v.327h.236v-.885h-.236v.35h-.288v-.35h-.238v.885z" fill="#fff"/></g><g transform="translate(242.6303 482.947)"><path d="m0 0c .012-.003.034-.003.05-.003.154-.002.267.083.267.283 0 .172-.103.253-.245.253-.038 0-.06-.002-.072-.005zm-.238.696c.076.012.178.019.283.019.169 0 .276-.028.364-.088.097-.067.16-.178.16-.341 0-.18-.068-.297-.155-.364-.097-.076-.242-.11-.415-.11-.115 0-.191.008-.237.016z" fill="#fff"/></g></g></svg>

<?xml version="1.0" encoding="UTF-8" standalone="no"?>
<!-- Created with Inkscape (http://www.inkscape.org/) -->

<svg
   xmlns:dc="http://purl.org/dc/elements/1.1/"
   xmlns:cc="http://creativecommons.org/ns#"
   xmlns:rdf="http://www.w3.org/1999/02/22-rdf-syntax-ns#"
   xmlns:svg="http://www.w3.org/2000/svg"
   xmlns="http://www.w3.org/2000/svg"
   xmlns:sodipodi="http://sodipodi.sourceforge.net/DTD/sodipodi-0.dtd"
   xmlns:inkscape="http://www.inkscape.org/namespaces/inkscape"
   width="5.9522014mm"
   height="2.5502305mm"
   viewBox="0 0 5.9522014 2.5502305"
   version="1.1"
   id="svg49412"
   inkscape:version="0.92.0 r15299"
   sodipodi:docname="Life TV HD.svg">
  <defs
     id="defs49406">
    <clipPath
       clipPathUnits="userSpaceOnUse"
       id="clipPath19630">
      <path
         d="m 226.254,476.433 h 16.945 v 7.229 h -16.945 z"
         id="path19628"
         inkscape:connector-curvature="0" />
    </clipPath>
  </defs>
  <sodipodi:namedview
     id="base"
     pagecolor="#ffffff"
     bordercolor="#666666"
     borderopacity="1.0"
     inkscape:pageopacity="0.0"
     inkscape:pageshadow="2"
     inkscape:zoom="22.4"
     inkscape:cx="12.798979"
     inkscape:cy="3.1808313"
     inkscape:document-units="mm"
     inkscape:current-layer="layer1"
     showgrid="false"
     fit-margin-top="0"
     fit-margin-left="0"
     fit-margin-right="0"
     fit-margin-bottom="0"
     inkscape:window-width="1920"
     inkscape:window-height="1017"
     inkscape:window-x="-8"
     inkscape:window-y="-8"
     inkscape:window-maximized="1" />
  <metadata
     id="metadata49409">
    <rdf:RDF>
      <cc:Work
         rdf:about="">
        <dc:format>image/svg+xml</dc:format>
        <dc:type
           rdf:resource="http://purl.org/dc/dcmitype/StillImage" />
        <dc:title></dc:title>
      </cc:Work>
    </rdf:RDF>
  </metadata>
  <g
     inkscape:label="Layer 1"
     inkscape:groupmode="layer"
     id="layer1"
     transform="translate(-62.791756,-99.177268)">
    <g
       transform="matrix(0.35277777,0,0,-0.35277777,-17.051243,269.80247)"
       id="g19624"
       style="fill:#ffffff;fill-opacity:1">
      <g
         id="g19626"
         clip-path="url(#clipPath19630)"
         style="fill:#ffffff;fill-opacity:1">
        <g
           id="g19632"
           transform="translate(235.0052,481.143)"
           style="fill:#ffffff;fill-opacity:1">
          <path
             d="M 0,0 C 0.176,-0.075 0.202,-0.305 0.06,-0.553 -0.006,-0.668 -0.322,-0.982 -0.547,-1.16 l -0.121,-0.095 -0.017,0.089 c -0.055,0.274 0.017,0.694 0.158,0.941 C -0.389,0.017 -0.216,0.089 0,0 m -1.235,1.952 c -0.003,-0.228 -0.282,-0.78 -0.8,-1.575 -0.141,-0.219 -0.262,-0.391 -0.271,-0.386 -0.006,0.006 0.04,0.213 0.104,0.455 0.21,0.818 0.408,1.293 0.636,1.529 0.118,0.124 0.15,0.141 0.233,0.132 0.098,-0.008 0.098,-0.008 0.098,-0.155 m 6.52,0.432 C 3.881,2.303 3.394,2.283 2.536,2.266 1.543,2.248 0.938,2.274 0.512,2.346 0.412,2.363 0.322,2.369 0.314,2.361 0.279,2.326 0.576,2.053 0.751,1.955 1.065,1.776 1.532,1.704 2.588,1.664 2.867,1.652 3.098,1.632 3.098,1.621 3.098,1.609 2.982,0.959 2.838,0.178 2.594,-1.18 2.349,-2.548 2.349,-2.579 c 0,-0.015 -5.098,-0.006 -5.113,0.008 -0.008,0.009 0.291,1.799 0.334,1.995 0.023,0.113 0.049,0.156 0.104,0.182 0.118,0.051 0.181,0.037 0.4,-0.095 0.351,-0.213 0.481,-0.219 0.639,-0.023 0.072,0.083 0.089,0.054 0.023,-0.035 -0.023,-0.029 -0.069,-0.138 -0.103,-0.242 -0.167,-0.504 0.06,-1.042 0.495,-1.169 0.253,-0.074 0.478,-0.046 0.869,0.113 0.343,0.138 0.97,0.567 0.97,0.662 0,0.075 -0.066,0.049 -0.23,-0.087 -0.276,-0.227 -0.685,-0.417 -0.898,-0.417 -0.144,0.003 -0.331,0.098 -0.398,0.207 l -0.057,0.095 0.21,0.187 c 0.455,0.406 0.639,0.642 0.688,0.873 C 0.357,0.032 0.081,0.236 -0.369,0.153 -0.573,0.115 -0.7,0.058 -0.898,-0.101 -0.979,-0.167 -1.054,-0.204 -1.062,-0.19 c -0.012,0.02 -0.038,0.02 -0.072,0 -0.043,-0.023 -0.101,-0.006 -0.259,0.075 C -1.506,-0.06 -1.667,0 -1.75,0.017 -1.886,0.046 -1.917,0.043 -2.024,-0.009 -2.087,-0.04 -2.142,-0.063 -2.142,-0.055 c 0,0.006 0.089,0.144 0.196,0.305 0.57,0.853 0.898,1.512 0.898,1.803 0,0.175 -0.075,0.244 -0.256,0.239 -0.443,-0.009 -0.91,-0.484 -1.261,-1.279 -0.294,-0.668 -0.472,-1.252 -0.714,-2.346 -0.017,-0.075 -0.25,-0.222 -0.426,-0.27 -0.302,-0.084 -0.334,0.094 -0.179,1.016 0.11,0.63 0.095,0.771 -0.077,0.771 -0.19,0 -0.351,-0.167 -0.815,-0.849 -0.141,-0.204 -0.305,-0.435 -0.368,-0.51 -0.11,-0.132 -0.13,-0.241 -0.038,-0.207 0.023,0.009 0.176,0.196 0.337,0.418 0.161,0.221 0.299,0.394 0.305,0.388 0.009,-0.006 -0.009,-0.115 -0.034,-0.239 -0.026,-0.123 -0.055,-0.357 -0.064,-0.515 -0.014,-0.265 -0.011,-0.308 0.049,-0.429 0.089,-0.184 0.17,-0.23 0.403,-0.227 0.213,0 0.446,0.095 0.703,0.279 0.08,0.057 0.146,0.101 0.149,0.098 0.006,-0.003 -0.003,-0.058 -0.017,-0.121 -0.014,-0.063 -0.046,-0.279 -0.075,-0.478 l -0.049,-0.363 -1.312,-0.017 c -0.72,-0.009 -1.316,-0.014 -1.319,-0.012 -0.009,0.009 0.337,2.626 0.452,3.418 0.049,0.339 0.121,0.765 0.158,0.947 0.041,0.181 0.064,0.337 0.058,0.345 C -5.461,2.133 -5.599,1.989 -5.671,1.865 -5.945,1.402 -6.189,0.311 -6.503,-1.831 -6.561,-2.22 -6.613,-2.562 -6.618,-2.594 -6.63,-2.648 -6.664,-2.657 -7.116,-2.689 -7.764,-2.738 -8.3,-2.818 -8.438,-2.887 c -0.221,-0.116 -0.314,-0.389 -0.175,-0.522 0.158,-0.143 0.316,-0.152 1.214,-0.048 0.349,0.037 0.64,0.063 0.648,0.057 0.006,-0.009 -0.029,-0.296 -0.078,-0.639 -0.097,-0.662 -0.097,-0.671 0.044,-0.671 0.144,0 0.305,0.349 0.454,0.979 0.044,0.181 0.081,0.346 0.087,0.36 0.011,0.046 1.779,0.184 2.378,0.187 0.325,0 0.337,-0.003 0.354,-0.066 0.008,-0.035 0.017,-0.092 0.017,-0.13 0,-0.075 0.086,-0.118 0.193,-0.098 0.072,0.015 0.222,0.144 0.296,0.257 l 0.044,0.063 1.468,0.029 c 0.809,0.017 1.986,0.04 2.617,0.049 l 1.148,0.02 -0.02,-0.112 C 2.185,-3.564 2.168,-3.846 2.202,-3.958 c 0.035,-0.121 0.087,-0.15 0.144,-0.078 0.02,0.023 0.055,0.181 0.078,0.354 0.043,0.337 0.092,0.616 0.109,0.633 0.006,0.009 1.086,0.015 2.401,0.018 1.316,0.002 2.384,0.014 2.378,0.026 -0.017,0.028 -0.348,0.132 -0.579,0.181 -0.5,0.104 -1.571,0.173 -3.137,0.204 -0.893,0.018 -0.988,0.026 -0.988,0.069 0,0.049 0.225,1.362 0.533,3.115 0.103,0.582 0.187,1.062 0.187,1.068 0,0.003 0.406,0.009 0.901,0.012 C 5.093,1.65 5.7,1.684 5.841,1.736 5.939,1.773 6.086,1.937 6.106,2.03 6.163,2.294 5.878,2.415 5.285,2.384"
             style="fill:#ffffff;fill-opacity:1;fill-rule:evenodd;stroke:none"
             id="path19634"
             inkscape:connector-curvature="0" />
        </g>
        <g
           id="g19636"
           transform="translate(230.9921,482.3377)"
           style="fill:#ffffff;fill-opacity:1">
          <path
             d="m 0,0 c -0.141,-0.075 -0.23,-0.216 -0.23,-0.366 0,-0.429 0.639,-0.374 0.711,0.061 0.023,0.138 -0.035,0.262 -0.15,0.314 C 0.207,0.069 0.121,0.066 0,0"
             style="fill:#ffffff;fill-opacity:1;fill-rule:evenodd;stroke:none"
             id="path19638"
             inkscape:connector-curvature="0" />
        </g>
        <g
           id="g19640"
           transform="translate(239.7868,481.3704)"
           style="fill:#ffffff;fill-opacity:1">
          <path
             d="m 0,0 c -0.003,-0.118 -0.026,-0.184 -0.115,-0.34 -0.104,-0.178 -0.115,-0.19 -0.141,-0.129 -0.015,0.037 -0.026,0.164 -0.029,0.285 -0.003,0.262 0.049,0.351 0.196,0.337 C -0.003,0.144 0,0.141 0,0 m -0.273,0.248 c -0.222,-0.07 -0.337,-0.176 -0.444,-0.406 -0.161,-0.354 -0.144,-1.132 0.032,-1.483 0.115,-0.23 0.325,-0.34 0.507,-0.262 0.273,0.112 0.831,0.901 1.301,1.831 0.115,0.23 0.121,0.259 0.046,0.259 -0.041,0 -0.107,-0.086 -0.233,-0.308 -0.616,-1.065 -0.732,-1.235 -0.815,-1.203 -0.058,0.023 -0.268,0.434 -0.297,0.575 -0.014,0.078 0,0.121 0.072,0.228 0.199,0.288 0.306,0.599 0.239,0.697 -0.057,0.089 -0.244,0.121 -0.408,0.072"
             style="fill:#ffffff;fill-opacity:1;fill-rule:evenodd;stroke:none"
             id="path19642"
             inkscape:connector-curvature="0" />
        </g>
        <g
           id="g19644"
           transform="translate(236.528,480.406)"
           style="fill:#ffffff;fill-opacity:1">
          <path
             d="m 0,0 c -0.109,-0.066 -0.173,-0.158 -0.199,-0.276 -0.026,-0.13 0.101,-0.271 0.242,-0.271 0.133,0 0.277,0.086 0.337,0.199 C 0.521,-0.072 0.265,0.164 0,0"
             style="fill:#ffffff;fill-opacity:1;fill-rule:evenodd;stroke:none"
             id="path19646"
             inkscape:connector-curvature="0" />
        </g>
        <g
           id="g19648"
           transform="translate(241.7042,483.6551)"
           style="fill:#ffffff;fill-opacity:1">
          <path
             d="M 0,0 V -0.327 H 0.288 V 0 H 0.524 V -0.885 H 0.288 v 0.35 H 0 v -0.35 H -0.238 V 0 Z"
             style="fill:#ffffff;fill-opacity:1;fill-rule:nonzero;stroke:none"
             id="path19650"
             inkscape:connector-curvature="0" />
        </g>
        <g
           id="g19652"
           transform="translate(242.6303,482.947)"
           style="fill:#ffffff;fill-opacity:1">
          <path
             d="M 0,0 C 0.012,-0.003 0.034,-0.003 0.05,-0.003 0.204,-0.005 0.317,0.08 0.317,0.28 0.317,0.452 0.214,0.533 0.072,0.533 0.034,0.533 0.012,0.531 0,0.528 Z m -0.238,0.696 c 0.076,0.012 0.178,0.019 0.283,0.019 0.169,0 0.276,-0.028 0.364,-0.088 0.097,-0.067 0.16,-0.178 0.16,-0.341 0,-0.18 -0.068,-0.297 -0.155,-0.364 -0.097,-0.076 -0.242,-0.11 -0.415,-0.11 -0.115,0 -0.191,0.008 -0.237,0.016 z"
             style="fill:#ffffff;fill-opacity:1;fill-rule:nonzero;stroke:none"
             id="path19654"
             inkscape:connector-curvature="0" />
        </g>
      </g>
    </g>
  </g>
</svg>
